src/assets/filled/ChartSquare.svg

<?xml version="1.0" encoding="UTF-8"?>
<svg width="24" height="24" viewBox="0 0 24 24" xmlns="http://www.w3.org/2000/svg">
 <path d="m16.19 2h-8.38c-3.64 0-5.81 2.17-5.81 5.81v8.37c0 3.65 2.17 5.82 5.81 5.82h8.37c3.64 0 5.81-2.17 5.81-5.81v-8.38c0.01-3.64-2.16-5.81-5.8-5.81zm-7.08 14.9c0 0.28-0.22 0.5-0.5 0.5h-2.79c-0.28 0-0.5-0.22-0.5-0.5v-4.62c0-0.63 0.51-1.14 1.14-1.14h2.15c0.28 0 0.5 0.22 0.5 0.5v5.26zm4.78 0c0 0.28-0.22 0.5-0.5 0.5h-2.79c-0.28 0-0.5-0.22-0.5-0.5v-9.16c0-0.63 0.51-1.14 1.14-1.14h1.52c0.63 0 1.14 0.51 1.14 1.14v9.16h-0.01zm4.79 0c0 0.28-0.22 0.5-0.5 0.5h-2.79c-0.28 0-0.5-0.22-0.5-0.5v-3.55c0-0.28 0.22-0.5 0.5-0.5h2.15c0.63 0 1.14 0.51 1.14 1.14v2.91z"/>
</svg>

<svg width="24" height="24" viewBox="0 0 24 24"  xmlns="http://www.w3.org/2000/svg">
<path d="M16.19 2H7.81C4.17 2 2 4.17 2 7.81V16.18C2 19.83 4.17 22 7.81 22H16.18C19.82 22 21.99 19.83 21.99 16.19V7.81C22 4.17 19.83 2 16.19 2ZM9.11 16.9C9.11 17.18 8.89 17.4 8.61 17.4H5.82C5.54 17.4 5.32 17.18 5.32 16.9V12.28C5.32 11.65 5.83 11.14 6.46 11.14H8.61C8.89 11.14 9.11 11.36 9.11 11.64V16.9ZM13.89 16.9C13.89 17.18 13.67 17.4 13.39 17.4H10.6C10.32 17.4 10.1 17.18 10.1 16.9V7.74C10.1 7.11 10.61 6.6 11.24 6.6H12.76C13.39 6.6 13.9 7.11 13.9 7.74V16.9H13.89ZM18.68 16.9C18.68 17.18 18.46 17.4 18.18 17.4H15.39C15.11 17.4 14.89 17.18 14.89 16.9V13.35C14.89 13.07 15.11 12.85 15.39 12.85H17.54C18.17 12.85 18.68 13.36 18.68 13.99V16.9Z" />
</svg>
